svg/nature/butterfly_line.svg

<?xml version="1.0" encoding="UTF-8"?>
<svg width="24px" height="24px" viewBox="0 0 24 24" version="1.1" xmlns="http://www.w3.org/2000/svg" xmlns:xlink="http://www.w3.org/1999/xlink">
    <title>butterfly_line</title>
    <g id="Icon" stroke="none" stroke-width="1" fill="none" fill-rule="evenodd">
        <g id="Nature" transform="translate(0.000000, -96.000000)">
            <g id="butterfly_line" transform="translate(0.000000, 96.000000)">
                <path d="M24,0 L24,24 L0,24 L0,0 L24,0 Z M12.5935,23.2578 L12.5819,23.2595 L12.5109,23.295 L12.4919,23.2987 L12.4767,23.295 L12.4057,23.2595 C12.3958,23.2564 12.387,23.259 12.3821,23.2649 L12.378,23.2758 L12.3609,23.7031 L12.3659,23.7235 L12.3769,23.7357 L12.4805,23.8097 L12.4953,23.8136 L12.5071,23.8097 L12.6107,23.7357 L12.6233,23.7197 L12.6267,23.7031 L12.6096,23.2758 C12.6076,23.2657 12.601,23.2593 12.5935,23.2578 Z M12.8584,23.1453 L12.8445,23.1473 L12.6598,23.2397 L12.6499,23.2499 L12.6472,23.2611 L12.6651,23.6906 L12.6699,23.7034 L12.6784,23.7105 L12.8793,23.8032 C12.8914,23.8069 12.9022,23.803 12.9078,23.7952 L12.9118,23.7812 L12.8777,23.1665 C12.8753,23.1546 12.8674,23.147 12.8584,23.1453 Z M12.143,23.1473 C12.1332,23.1424 12.1222,23.1453 12.1156,23.1526 L12.1099,23.1665 L12.0758,23.7812 C12.0751,23.7927 12.0828,23.8019 12.0926,23.8046 L12.1083,23.8032 L12.3092,23.7105 L12.3186,23.7024 L12.3225,23.6906 L12.3404,23.2611 L12.3372,23.2485 L12.3278,23.2397 L12.143,23.1473 Z" id="MingCute" fill-rule="nonzero"></path>
                <path d="M14.7575,3.03009 C15.2933,2.89615 15.8362,3.22191 15.9701,3.7577 C16.0945286,4.25522857 15.8224969,4.75890495 15.354009,4.93556817 L15.2425,4.97038 C14.9082,5.05395 14.5369,5.33108 14.1584,5.82641 C13.9458,6.10459 13.7577,6.41688 13.5961,6.72705 C14.2357,6.29416 15.0261,6.00024 16,6.00024 C17.5363,6.00024 18.8156,6.63302 19.6952,7.67216 C20.5614,8.69543 21,10.061 21,11.5002 C21,13.7475 19.6528,15.679 17.7219,16.5327 C17.9013,16.9872 18,17.4825 18,18.0002 C18,20.2094 16.2091,22.0002 14,22.0002 C13.272,22.0002 12.5884,21.8051 12,21.4649 C11.4116,21.8051 10.728,22.0002 10,22.0002 C7.79086,22.0002 6,20.2094 6,18.0002 C6,17.4825 6.0987,16.9872 6.27808,16.5327 C4.34717,15.679 3,13.7475 3,11.5002 C3,10.061 3.43856,8.69543 4.30476,7.67216 C5.1844,6.63302 6.46373,6.00024 8,6.00024 C8.97391,6.00024 9.76431,6.29416 10.4039,6.72705 C10.2423,6.41688 10.0542,6.10459 9.84162,5.82641 C9.50519333,5.38611667 9.17438444,5.11822827 8.87022818,5.00543936 L8.75746,4.97038 C8.22167,4.83643 7.89591,4.2935 8.02986,3.7577 C8.16381,3.22191 8.70674,2.89615 9.24254,3.03009 C10.2113,3.27228 10.9307,3.95764 11.4308,4.61212 C11.6446,4.89198 11.8341,5.18678 12,5.4773 C12.1659,5.18678 12.3554,4.89198 12.5692,4.61212 C13.0693,3.95764 13.7887,3.27228 14.7575,3.03009 Z M8,8.00024 C7.05099,8.00024 6.33032,8.37481 5.83127,8.96435 C5.3188,9.56976 5,10.4542 5,11.5002 C5,13.2503 6.28544,14.702 7.9635,14.9595 C8.33038,15.0158 8.6359,15.2707 8.75705,15.6216 C8.8782,15.9724 8.79505,16.3615 8.54107,16.6322 C8.20462,16.9908 8,17.4705 8,18.0002 C8,19.1048 8.89543,20.0002 10,20.0002 C10.3649,20.0002 10.7059,19.9032 11,19.7329 L11,11.8986 C11,11.1952 10.8793,10.5523 10.6017,10.0173 C10.0203,8.8969 9.24059,8.00024 8,8.00024 Z M16,8.00024 C14.7594,8.00024 13.9797,8.8969 13.3983,10.0173 C13.1554,10.485425 13.0326266,11.0361609 13.0057285,11.6377535 L13,11.8986 L13,19.7329 C13.2941,19.9032 13.6351,20.0002 14,20.0002 C15.1046,20.0002 16,19.1048 16,18.0002 C16,17.4705 15.7954,16.9908 15.4589,16.6322 C15.205,16.3615 15.1218,15.9724 15.243,15.6216 C15.3641,15.2707 15.6696,15.0158 16.0365,14.9595 C17.7146,14.702 19,13.2503 19,11.5002 C19,10.4542 18.6812,9.56976 18.1687,8.96435 C17.6697,8.37481 16.949,8.00024 16,8.00024 Z" id="形状" fill="#09244B"></path>
            </g>
        </g>
    </g>
</svg>

<svg xmlns="http://www.w3.org/2000/svg" width="24" height="24"><g fill="none" fill-rule="evenodd"><path d="M24 0v24H0V0h24ZM12.594 23.258l-.012.002-.071.035-.02.004-.014-.004-.071-.036c-.01-.003-.019 0-.024.006l-.004.01-.017.428.005.02.01.013.104.074.015.004.012-.004.104-.074.012-.016.004-.017-.017-.427c-.002-.01-.009-.017-.016-.018Zm.264-.113-.014.002-.184.093-.01.01-.003.011.018.43.005.012.008.008.201.092c.012.004.023 0 .029-.008l.004-.014-.034-.614c-.003-.012-.01-.02-.02-.022Zm-.715.002a.023.023 0 0 0-.027.006l-.006.014-.034.614c0 .012.007.02.017.024l.015-.002.201-.093.01-.008.003-.011.018-.43-.003-.012-.01-.01-.184-.092Z"/><path fill="#09244B" d="M14.758 3.03a1 1 0 0 1 .596 1.906l-.111.034c-.335.084-.706.361-1.085.856-.212.279-.4.59-.562.901A4.196 4.196 0 0 1 16 6c1.536 0 2.816.633 3.695 1.672C20.561 8.695 21 10.061 21 11.5a5.5 5.5 0 0 1-3.278 5.033A4 4 0 0 1 12 21.465a4 4 0 0 1-5.722-4.932A5.5 5.5 0 0 1 3 11.5c0-1.439.439-2.805 1.305-3.828C5.185 6.633 6.464 6 8 6c.974 0 1.764.294 2.404.727a6.255 6.255 0 0 0-.562-.9c-.337-.44-.668-.709-.972-.822l-.113-.035a1 1 0 0 1 .486-1.94c.968.242 1.688.928 2.188 1.582a7.8 7.8 0 0 1 .569.865 7.8 7.8 0 0 1 .57-.865c.5-.654 1.219-1.34 2.188-1.582ZM8 8c-.949 0-1.67.375-2.169.964C5.32 9.57 5 10.454 5 11.5a3.501 3.501 0 0 0 2.964 3.46 1 1 0 0 1 .577 1.672 2 2 0 0 0 2.459 3.1V11.9c0-.704-.12-1.347-.398-1.882C10.02 8.897 9.24 8 8 8Zm8 0c-1.24 0-2.02.897-2.602 2.017-.243.468-.365 1.02-.392 1.62L13 11.9v7.834a2 2 0 0 0 2.459-3.1 1 1 0 0 1 .578-1.673A3.501 3.501 0 0 0 19 11.5c0-1.046-.319-1.93-.831-2.536C17.669 8.374 16.949 8 16 8Z"/></g></svg>
